X: 1134
T: The Prince Of Orange
M: 6/8
L: 1/8
R: jig
K: D Major
|: A | 
D2 F A2 d | faf ecA | B2 c d2 B | ABG FGE |
D2 F A2 d | f/g/af ecA | Bcd c/d/ec | d3- d2 :|
|: A | 
efe dcB | A2 A Ace | g2 e f2 d | cec Acd |
eg/f/e d2 B | AcB Ace | g2 e fed |[1 edc A2 :|[2 edc BAG ||
|: F3 GFG | A2 d d2 B | AD/E.F AGF | EBA GFE |
FD/E/F GFG | B2 A A2 d | B/c/dB cec |[1 d3 d2 A :|[2 d3- d2 ||
